X: 12782
T: Favourite Quadrille, The
R: jig
M: 6/8
K: Dmajor
|:A|AFG Aaf|ede fdB|ABA AdF|FEE E2A|
AFG Aaf|ede fdB|ABA faf|ded d2:|
|:a|afa afa|bgb bgb|aba agf|efe efg|
a3 f3|ede fdB|ABA faf|1 ded d2:|2 ded d||
[K:A]
|:ed|c2c cag|f2f fga|efe edc|cBB Bed|
c2c cag|f2f fga|efe dcB|BAA [1A:|2 A2||

